static/images/mobile/copyright/meta.svg

<svg xmlns="http://www.w3.org/2000/svg" width="85" height="85"><path d="M29.902 17.174a28.159 28.159 0 0 0-8.019 5.961 25.713 25.713 0 0 0 3.368-.155 30.652 30.652 0 0 1 4.651-5.806zm2.659-1.157a30.54 30.54 0 0 1 7.095.488 25.55 25.55 0 0 0 2.245-2.293c-3.121.064-6.273.65-9.34 1.805zm-1.472 2.609a28.808 28.808 0 0 0-3.336 3.949 25.943 25.943 0 0 0 4.445-1.385l-1.109-2.564zm1.736-.749 1.097 2.537a25.865 25.865 0 0 0 3.784-2.318 28.548 28.548 0 0 0-4.881-.219zm11.474-3.611a27.947 27.947 0 0 1-2.423 2.745 30.476 30.476 0 0 1 11.685 6.055 40.643 40.643 0 0 0 3.433-4.856 28.424 28.424 0 0 0-12.695-3.944zm-23.99 10.69a28.597 28.597 0 0 0-5.589 12.087c1.959.379 3.951.619 5.96.704a30.662 30.662 0 0 1 3.437-12.764c-1.275.08-2.548.069-3.808-.027zm19.896-6.424a27.6 27.6 0 0 1-5.534 3.615l5.062 11.705a40.306 40.306 0 0 0 12.597-9.36 28.571 28.571 0 0 0-12.125-5.96zm-13.836 6.214a28.722 28.722 0 0 0-3.814 13.037 40.218 40.218 0 0 0 15.452-3.16L32.95 22.928a27.67 27.67 0 0 1-6.581 1.818zm32.214-5.51a42.695 42.695 0 0 1-3.61 5.088 29.995 29.995 0 0 1 6.89 9.877c.343.794.652 1.594.922 2.4a56.088 56.088 0 0 0 5.252-6.274 28.213 28.213 0 0 0-9.454-11.091zM14.407 38.908a28.332 28.332 0 0 0 1.864 14.472c2.693.297 5.419.404 8.155.305-.469-.848-.9-1.725-1.293-2.632a30.088 30.088 0 0 1-2.477-11.411 42.225 42.225 0 0 1-6.249-.734zm39.328-13.162a42.155 42.155 0 0 1-13.25 9.845l5.571 12.884a56.15 56.15 0 0 0 15.223-10.373 28.615 28.615 0 0 0-1.149-3.147 28.188 28.188 0 0 0-6.395-9.209zM22.529 39.673a28.272 28.272 0 0 0 2.332 10.628 28.415 28.415 0 0 0 1.67 3.268 56.088 56.088 0 0 0 17.8-4.324l-5.572-12.884a42.084 42.084 0 0 1-16.23 3.312zM68.9 32.321a58.314 58.314 0 0 1-5.505 6.345 30.186 30.186 0 0 1-.024 15.106 69.71 69.71 0 0 0 6.948-5.76A28.34 28.34 0 0 0 68.9 32.321zm-51.73 23.05a28.236 28.236 0 0 0 10.658 11.568 69.264 69.264 0 0 0 8.767-1.272 30.055 30.055 0 0 1-11.064-10.14 57.828 57.828 0 0 1-8.361-.156zm44.649-15.187a58.022 58.022 0 0 1-15.008 10.034l4.564 10.555a70.329 70.329 0 0 0 9.534-5.285 28.402 28.402 0 0 0 .91-15.304zM27.697 55.372a28.268 28.268 0 0 0 11.785 9.62 70.317 70.317 0 0 0 10.164-3.455l-4.564-10.554a57.948 57.948 0 0 1-17.385 4.389zm41.768-4.039a71.546 71.546 0 0 1-7.01 5.393 30.793 30.793 0 0 1-7.38 11.369c7.092-3.517 12.113-9.677 14.39-16.762zM30.838 68.527c6.622 2.997 14.365 3.444 21.616.708a30.57 30.57 0 0 1-13.095-2.266 71.301 71.301 0 0 1-8.521 1.558zm28.831-10.014a72.41 72.41 0 0 1-7.54 4.003l1.776 4.107c2.4-2.37 4.34-5.122 5.764-8.11zm-17.163 7.609a28.613 28.613 0 0 0 9.668 1.26l-1.776-4.106a72.359 72.359 0 0 1-7.892 2.846z" fill="#396"/><path d="M42.5 0C27.997 0 15.185 7.299 7.514 18.432l8.217 4.76C21.74 14.883 31.491 9.473 42.5 9.473c11.009 0 20.76 5.41 26.769 13.719l8.217-4.76C69.815 7.299 57.003 0 42.5 0z" fill="#900"/><path d="M3.04 26.786A42.578 42.578 0 0 0 0 42.63C0 64.562 16.537 82.642 37.778 85v-9.556C21.767 73.142 9.444 59.324 9.444 42.63c0-3.874.664-7.591 1.883-11.048L3.04 26.786zM81.96 26.786l-8.287 4.796a33.154 33.154 0 0 1 1.883 11.048c0 16.694-12.323 30.512-28.334 32.814V85C68.463 82.642 85 64.562 85 42.63a42.578 42.578 0 0 0-3.04-15.844z" fill="#069"/></svg>

<?xml version="1.0" encoding="UTF-8"?>
<svg version="1.1" xmlns="http://www.w3.org/2000/svg" xmlns:xlink="http://www.w3.org/1999/xlink" x="0" y="0" width="85" height="85" viewBox="0 0 85 85">
  <title>
    metawiki-logo
  </title>
  <g id="metawiki-logo">
    <path d="M29.902,17.174 C26.817,18.707 24.127,20.743 21.883,23.135 C23.001,23.157 24.126,23.106 25.251,22.98 C26.55,20.88 28.107,18.927 29.902,17.174 z M32.561,16.017 C34.956,15.904 37.337,16.068 39.656,16.505 C40.457,15.786 41.204,15.017 41.901,14.212 C38.78,14.276 35.628,14.862 32.561,16.017 z M31.089,18.626 C29.852,19.847 28.739,21.171 27.753,22.575 C29.248,22.255 30.736,21.792 32.198,21.19 L31.089,18.626 z M32.825,17.877 L33.922,20.414 C35.268,19.742 36.53,18.962 37.706,18.096 C36.099,17.886 34.466,17.809 32.825,17.877 z M44.299,14.266 C43.555,15.228 42.747,16.147 41.876,17.011 C46.149,18.151 50.147,20.212 53.561,23.066 C54.827,21.529 55.972,19.905 56.994,18.21 C53.15,15.919 48.792,14.558 44.299,14.266 z M20.309,24.956 C17.515,28.493 15.604,32.643 14.72,37.043 C16.679,37.422 18.671,37.662 20.68,37.747 C20.879,33.282 22.069,28.922 24.117,24.983 C22.842,25.063 21.569,25.052 20.309,24.956 z M40.205,18.532 C38.542,19.93 36.693,21.147 34.671,22.147 L39.733,33.852 C44.64,31.519 48.876,28.307 52.33,24.492 C48.82,21.558 44.649,19.518 40.205,18.532 z M26.369,24.746 C24.084,28.711 22.762,33.185 22.555,37.783 C27.718,37.762 32.959,36.745 38.007,34.623 L32.95,22.928 C30.792,23.82 28.584,24.423 26.369,24.746 z M58.583,19.236 C57.509,21.012 56.303,22.713 54.973,24.324 C57.833,27.038 60.201,30.359 61.863,34.201 C62.206,34.995 62.515,35.795 62.785,36.601 C64.695,34.63 66.449,32.534 68.037,30.327 C65.833,25.715 62.531,21.96 58.583,19.236 z M14.407,38.908 C13.775,43.666 14.337,48.64 16.271,53.38 C18.964,53.677 21.69,53.784 24.426,53.685 C23.957,52.837 23.526,51.96 23.133,51.053 C21.525,47.335 20.727,43.467 20.656,39.642 C18.55,39.554 16.461,39.305 14.407,38.908 z M53.735,25.746 C50.104,29.764 45.649,33.144 40.485,35.591 L46.056,48.475 C51.815,45.803 56.917,42.276 61.279,38.102 C60.962,37.043 60.579,35.994 60.13,34.955 C58.583,31.377 56.386,28.282 53.735,25.746 z M22.529,39.673 C22.607,43.234 23.362,46.837 24.861,50.301 C25.353,51.441 25.913,52.53 26.531,53.569 C32.509,53.126 38.512,51.715 44.331,49.245 L38.759,36.361 C33.46,38.591 27.953,39.657 22.529,39.673 z M68.9,32.321 C67.227,34.554 65.391,36.677 63.395,38.666 C64.699,43.724 64.627,48.91 63.371,53.772 C65.827,51.989 68.147,50.066 70.319,48.012 C71.307,42.907 70.907,37.484 68.9,32.321 z M17.17,55.371 C19.638,60.316 23.386,64.248 27.828,66.939 C30.752,66.704 33.678,66.283 36.595,65.667 C32.195,63.317 28.358,59.878 25.531,55.527 C22.729,55.678 19.935,55.623 17.17,55.371 z M61.819,40.184 C57.471,44.199 52.445,47.609 46.811,50.218 L51.375,60.773 C54.733,59.234 57.917,57.469 60.909,55.488 C60.91,55.486 60.911,55.483 60.912,55.48 C62.574,50.644 62.949,45.362 61.819,40.184 z M27.697,55.372 C30.722,59.675 34.833,62.952 39.482,64.992 C42.903,64.116 46.298,62.966 49.646,61.537 L45.082,50.983 C39.399,53.397 33.541,54.836 27.697,55.372 z M69.465,51.333 C67.258,53.258 64.921,55.062 62.455,56.726 C60.888,60.971 58.379,64.872 55.075,68.095 C62.167,64.578 67.188,58.418 69.465,51.333 z M30.838,68.527 C37.46,71.524 45.203,71.971 52.454,69.235 C47.931,69.451 43.46,68.658 39.359,66.969 C36.529,67.667 33.684,68.183 30.838,68.527 z M59.669,58.513 C57.264,59.978 54.749,61.317 52.129,62.516 L53.905,66.623 C56.305,64.253 58.245,61.501 59.669,58.513 z M42.506,66.122 C45.602,67.083 48.871,67.519 52.174,67.382 L50.398,63.276 C47.792,64.388 45.159,65.338 42.506,66.122 z" fill="#339966" id="green-globe"/>
    <path d="M42.5,-0 C27.997,-0 15.185,7.299 7.514,18.432 L15.731,23.192 C21.74,14.883 31.491,9.473 42.5,9.473 C53.509,9.473 63.26,14.883 69.269,23.192 L77.486,18.432 C69.815,7.299 57.003,-0 42.5,-0 z" fill="#990000" id="top-red-line"/>
    <path d="M3.04,26.786 C1.081,31.685 0,37.031 0,42.63 C0,64.562 16.537,82.642 37.778,85 L37.778,75.444 C21.767,73.142 9.444,59.324 9.444,42.63 C9.444,38.756 10.108,35.039 11.327,31.582 L3.04,26.786 z" fill="#006699" id="left-blue-line"/>
    <path d="M81.96,26.786 L73.673,31.582 C74.892,35.039 75.556,38.756 75.556,42.63 C75.556,59.324 63.233,73.142 47.222,75.444 L47.222,85 C68.463,82.642 85,64.562 85,42.63 C85,37.031 83.919,31.685 81.96,26.786 z" fill="#006699" id="right-blue-line"/>
  </g>
</svg>
